images/indikatorenset/5817.svg

<?xml version="1.0" standalone="no"?><!DOCTYPE svg PUBLIC "-//W3C//DTD SVG 1.1//EN" "http://www.w3.org/Graphics/SVG/1.1/DTD/svg11.dtd"><svg xmlns:xlink="http://www.w3.org/1999/xlink" version="1.1" class="highcharts-root" style="font-family:arial;font-size:12px;" xmlns="http://www.w3.org/2000/svg" width="485" height="415"><desc>Created with Highstock 5.0.14</desc><defs><clipPath id="highcharts-54eo2yg-6"><rect x="0" y="0" width="423" height="242" fill="none"></rect></clipPath><clipPath id="highcharts-54eo2yg-7"><rect x="0" y="0" width="423" height="242" fill="none"></rect></clipPath></defs><rect fill="#fbfbfb" class="highcharts-background" x="0" y="0" width="485" height="415" rx="0" ry="0"></rect><rect fill="none" class="highcharts-plot-background" x="52" y="55" width="423" height="242"></rect><g class="highcharts-pane-group"></g><g class="highcharts-grid highcharts-xaxis-grid "><path fill="none" class="highcharts-grid-line" d="M 71.5 55 L 71.5 297" opacity="1"></path><path fill="none" class="highcharts-grid-line" d="M 91.5 55 L 91.5 297" opacity="1"></path><path fill="none" class="highcharts-grid-line" d="M 111.5 55 L 111.5 297" opacity="1"></path><path fill="none" class="highcharts-grid-line" d="M 132.5 55 L 132.5 297" opacity="1"></path><path fill="none" class="highcharts-grid-line" d="M 152.5 55 L 152.5 297" opacity="1"></path><path fill="none" class="highcharts-grid-line" d="M 172.5 55 L 172.5 297" opacity="1"></path><path fill="none" class="highcharts-grid-line" d="M 192.5 55 L 192.5 297" opacity="1"></path><path fill="none" class="highcharts-grid-line" d="M 212.5 55 L 212.5 297" opacity="1"></path><path fill="none" class="highcharts-grid-line" d="M 232.5 55 L 232.5 297" opacity="1"></path><path fill="none" class="highcharts-grid-line" d="M 252.5 55 L 252.5 297" opacity="1"></path><path fill="none" class="highcharts-grid-line" d="M 273.5 55 L 273.5 297" opacity="1"></path><path fill="none" class="highcharts-grid-line" d="M 293.5 55 L 293.5 297" opacity="1"></path><path fill="none" class="highcharts-grid-line" d="M 313.5 55 L 313.5 297" opacity="1"></path><path fill="none" class="highcharts-grid-line" d="M 333.5 55 L 333.5 297" opacity="1"></path><path fill="none" class="highcharts-grid-line" d="M 353.5 55 L 353.5 297" opacity="1"></path><path fill="none" class="highcharts-grid-line" d="M 373.5 55 L 373.5 297" opacity="1"></path><path fill="none" class="highcharts-grid-line" d="M 393.5 55 L 393.5 297" opacity="1"></path><path fill="none" class="highcharts-grid-line" d="M 414.5 55 L 414.5 297" opacity="1"></path><path fill="none" class="highcharts-grid-line" d="M 434.5 55 L 434.5 297" opacity="1"></path><path fill="none" class="highcharts-grid-line" d="M 454.5 55 L 454.5 297" opacity="1"></path><path fill="none" class="highcharts-grid-line" d="M 474.5 55 L 474.5 297" opacity="1"></path><path fill="none" class="highcharts-grid-line" d="M 51.5 55 L 51.5 297" opacity="1"></path></g><g class="highcharts-grid highcharts-yaxis-grid "><path fill="none" stroke="#B9CFD7" stroke-width="0.5" class="highcharts-grid-line" d="M 52 297.25 L 475 297.25" opacity="1"></path><path fill="none" stroke="#B9CFD7" stroke-width="0.5" class="highcharts-grid-line" d="M 52 249.25 L 475 249.25" opacity="1"></path><path fill="none" stroke="#B9CFD7" stroke-width="0.5" class="highcharts-grid-line" d="M 52 200.25 L 475 200.25" opacity="1"></path><path fill="none" stroke="#B9CFD7" stroke-width="0.5" class="highcharts-grid-line" d="M 52 152.25 L 475 152.25" opacity="1"></path><path fill="none" stroke="#B9CFD7" stroke-width="0.5" class="highcharts-grid-line" d="M 52 103.25 L 475 103.25" opacity="1"></path><path fill="none" stroke="#B9CFD7" stroke-width="0.5" class="highcharts-grid-line" d="M 52 54.75 L 475 54.75" opacity="1"></path></g><rect fill="none" class="highcharts-plot-border" x="52" y="55" width="423" height="242"></rect><g class="highcharts-axis highcharts-xaxis "><path fill="none" class="highcharts-tick" stroke="#FFFFFF" stroke-width="1" d="M 71.5 297 L 71.5 307" opacity="1"></path><path fill="none" class="highcharts-tick" stroke="#FFFFFF" stroke-width="1" d="M 91.5 297 L 91.5 307" opacity="1"></path><path fill="none" class="highcharts-tick" stroke="#FFFFFF" stroke-width="1" d="M 111.5 297 L 111.5 307" opacity="1"></path><path fill="none" class="highcharts-tick" stroke="#FFFFFF" stroke-width="1" d="M 132.5 297 L 132.5 307" opacity="1"></path><path fill="none" class="highcharts-tick" stroke="#FFFFFF" stroke-width="1" d="M 152.5 297 L 152.5 307" opacity="1"></path><path fill="none" class="highcharts-tick" stroke="#FFFFFF" stroke-width="1" d="M 172.5 297 L 172.5 307" opacity="1"></path><path fill="none" class="highcharts-tick" stroke="#FFFFFF" stroke-width="1" d="M 192.5 297 L 192.5 307" opacity="1"></path><path fill="none" class="highcharts-tick" stroke="#FFFFFF" stroke-width="1" d="M 212.5 297 L 212.5 307" opacity="1"></path><path fill="none" class="highcharts-tick" stroke="#FFFFFF" stroke-width="1" d="M 232.5 297 L 232.5 307" opacity="1"></path><path fill="none" class="highcharts-tick" stroke="#FFFFFF" stroke-width="1" d="M 252.5 297 L 252.5 307" opacity="1"></path><path fill="none" class="highcharts-tick" stroke="#FFFFFF" stroke-width="1" d="M 273.5 297 L 273.5 307" opacity="1"></path><path fill="none" class="highcharts-tick" stroke="#FFFFFF" stroke-width="1" d="M 293.5 297 L 293.5 307" opacity="1"></path><path fill="none" class="highcharts-tick" stroke="#FFFFFF" stroke-width="1" d="M 313.5 297 L 313.5 307" opacity="1"></path><path fill="none" class="highcharts-tick" stroke="#FFFFFF" stroke-width="1" d="M 333.5 297 L 333.5 307" opacity="1"></path><path fill="none" class="highcharts-tick" stroke="#FFFFFF" stroke-width="1" d="M 353.5 297 L 353.5 307" opacity="1"></path><path fill="none" class="highcharts-tick" stroke="#FFFFFF" stroke-width="1" d="M 373.5 297 L 373.5 307" opacity="1"></path><path fill="none" class="highcharts-tick" stroke="#FFFFFF" stroke-width="1" d="M 393.5 297 L 393.5 307" opacity="1"></path><path fill="none" class="highcharts-tick" stroke="#FFFFFF" stroke-width="1" d="M 414.5 297 L 414.5 307" opacity="1"></path><path fill="none" class="highcharts-tick" stroke="#FFFFFF" stroke-width="1" d="M 434.5 297 L 434.5 307" opacity="1"></path><path fill="none" class="highcharts-tick" stroke="#FFFFFF" stroke-width="1" d="M 454.5 297 L 454.5 307" opacity="1"></path><path fill="none" class="highcharts-tick" stroke="#FFFFFF" stroke-width="1" d="M 475.5 297 L 475.5 307" opacity="1"></path><path fill="none" class="highcharts-tick" stroke="#FFFFFF" stroke-width="1" d="M 51.5 297 L 51.5 307" opacity="1"></path><path fill="none" class="highcharts-axis-line" stroke="#B9CFD7" stroke-width="0.5" d="M 52 297.25 L 475 297.25"></path></g><g class="highcharts-axis highcharts-yaxis "><path fill="none" class="highcharts-axis-line" d="M 52 55 L 52 297"></path></g><g class="highcharts-series-group"><g class="highcharts-series highcharts-series-0 highcharts-column-series highcharts-color-undefined " transform="translate(52,55) scale(1 1)" clip-path="url(#highcharts-54eo2yg-7)"><rect x="5" y="190" width="10" height="5" fill="#83522E" class="highcharts-point"></rect><rect x="25" y="169" width="10" height="26" fill="#83522E" class="highcharts-point"></rect><rect x="46" y="184" width="10" height="11" fill="#83522E" class="highcharts-point"></rect><rect x="66" y="169" width="10" height="26" fill="#83522E" class="highcharts-point"></rect><rect x="86" y="172" width="10" height="23" fill="#83522E" class="highcharts-point"></rect><rect x="106" y="135" width="10" height="60" fill="#83522E" class="highcharts-point"></rect><rect x="126" y="178" width="10" height="17" fill="#83522E" class="highcharts-point"></rect><rect x="146" y="184" width="10" height="11" fill="#83522E" class="highcharts-point"></rect><rect x="166" y="195" width="10" height="5" fill="#83522E" class="highcharts-point highcharts-negative"></rect><rect x="187" y="183" width="10" height="12" fill="#83522E" class="highcharts-point"></rect><rect x="207" y="138" width="10" height="57" fill="#83522E" class="highcharts-point"></rect><rect x="227" y="194" width="10" height="1" fill="#83522E" class="highcharts-point"></rect><rect x="247" y="191" width="10" height="4" fill="#83522E" class="highcharts-point"></rect><rect x="267" y="173" width="10" height="22" fill="#83522E" class="highcharts-point"></rect><rect x="287" y="158" width="10" height="37" fill="#83522E" class="highcharts-point"></rect><rect x="307" y="28" width="10" height="167" fill="#83522E" class="highcharts-point"></rect><rect x="328" y="180" width="10" height="15" fill="#83522E" class="highcharts-point"></rect><rect x="348" y="194" width="10" height="1" fill="#83522E" class="highcharts-point"></rect><rect x="368" y="177" width="10" height="18" fill="#83522E" class="highcharts-point"></rect><rect x="388" y="150" width="10" height="45" fill="#83522E" class="highcharts-point"></rect><rect x="408" y="192" width="10" height="3" fill="#83522E" class="highcharts-point"></rect></g><g class="highcharts-markers highcharts-series-0 highcharts-column-series highcharts-color-undefined " transform="translate(52,55) scale(1 1)" clip-path="none"></g></g><text x="10" text-anchor="start" class="highcharts-title" style="color:#000000;font-size:14px;font-weight:bold;fill:#000000;" y="21"><tspan>Nettowohnungsproduktion</tspan></text><text x="10" text-anchor="start" class="highcharts-subtitle" style="color:#000000;font-size:12px;font-weight:normal;font-family:arial;fill:#000000;" y="40"><tspan>nach Wohnviertel von 2007 bis 2016</tspan></text><g class="highcharts-axis-labels highcharts-xaxis-labels "><text x="65.73809523809524" style="color:#000000;cursor:default;font-size:11px;fill:#000000;" text-anchor="end" transform="translate(0,0) rotate(-90 65.73809523809524 309)" y="309" opacity="1"><tspan>Altstadt GB</tspan></text><text x="85.88095238095238" style="color:#000000;cursor:default;font-size:11px;fill:#000000;" text-anchor="end" transform="translate(0,0) rotate(-90 85.88095238095238 309)" y="309" opacity="1"><tspan>Vorstädte</tspan></text><text x="106.02380952380952" style="color:#000000;cursor:default;font-size:11px;fill:#000000;" text-anchor="end" transform="translate(0,0) rotate(-90 106.02380952380952 309)" y="309" opacity="1"><tspan>Am Ring</tspan></text><text x="126.16666666666664" style="color:#000000;cursor:default;font-size:11px;fill:#000000;" text-anchor="end" transform="translate(0,0) rotate(-90 126.16666666666664 309)" y="309" opacity="1"><tspan>Breite</tspan></text><text x="146.3095238095238" style="color:#000000;cursor:default;font-size:11px;fill:#000000;" text-anchor="end" transform="translate(0,0) rotate(-90 146.3095238095238 309)" y="309" opacity="1"><tspan>St. Alban</tspan></text><text x="166.4523809523809" style="color:#000000;cursor:default;font-size:11px;fill:#000000;" text-anchor="end" transform="translate(0,0) rotate(-90 166.4523809523809 309)" y="309" opacity="1"><tspan>Gundeldingen</tspan></text><text x="186.59523809523807" style="color:#000000;cursor:default;font-size:11px;fill:#000000;" text-anchor="end" transform="translate(0,0) rotate(-90 186.59523809523807 309)" y="309" opacity="1"><tspan>Bruderholz</tspan></text><text x="206.7380952380952" style="color:#000000;cursor:default;font-size:11px;fill:#000000;" text-anchor="end" transform="translate(0,0) rotate(-90 206.7380952380952 309)" y="309" opacity="1"><tspan>Bachletten</tspan></text><text x="226.88095238095238" style="color:#000000;cursor:default;font-size:11px;fill:#000000;" text-anchor="end" transform="translate(0,0) rotate(-90 226.88095238095238 309)" y="309" opacity="1"><tspan>Gotthelf</tspan></text><text x="247.02380952380955" style="color:#000000;cursor:default;font-size:11px;fill:#000000;" text-anchor="end" transform="translate(0,0) rotate(-90 247.02380952380955 309)" y="309" opacity="1"><tspan>Iselin</tspan></text><text x="267.1666666666667" style="color:#000000;cursor:default;font-size:11px;fill:#000000;" text-anchor="end" transform="translate(0,0) rotate(-90 267.1666666666667 309)" y="309" opacity="1"><tspan>St. Johann</tspan></text><text x="287.30952380952385" style="color:#000000;cursor:default;font-size:11px;fill:#000000;" text-anchor="end" transform="translate(0,0) rotate(-90 287.30952380952385 309)" y="309" opacity="1"><tspan>Altstadt KB</tspan></text><text x="307.45238095238096" style="color:#000000;cursor:default;font-size:11px;fill:#000000;" text-anchor="end" transform="translate(0,0) rotate(-90 307.45238095238096 309)" y="309" opacity="1"><tspan>Clara</tspan></text><text x="327.59523809523813" style="color:#000000;cursor:default;font-size:11px;fill:#000000;" text-anchor="end" transform="translate(0,0) rotate(-90 327.59523809523813 309)" y="309" opacity="1"><tspan>Wettstein</tspan></text><text x="347.73809523809524" style="color:#000000;cursor:default;font-size:11px;fill:#000000;" text-anchor="end" transform="translate(0,0) rotate(-90 347.73809523809524 309)" y="309" opacity="1"><tspan>Hirzbrunnen</tspan></text><text x="367.8809523809524" style="color:#000000;cursor:default;font-size:11px;fill:#000000;" text-anchor="end" transform="translate(0,0) rotate(-90 367.8809523809524 309)" y="309" opacity="1"><tspan>Rosental</tspan></text><text x="388.0238095238095" style="color:#000000;cursor:default;font-size:11px;fill:#000000;" text-anchor="end" transform="translate(0,0) rotate(-90 388.0238095238095 309)" y="309" opacity="1"><tspan>Matthäus</tspan></text><text x="408.1666666666667" style="color:#000000;cursor:default;font-size:11px;fill:#000000;" text-anchor="end" transform="translate(0,0) rotate(-90 408.1666666666667 309)" y="309" opacity="1"><tspan>Klybeck</tspan></text><text x="428.3095238095238" style="color:#000000;cursor:default;font-size:11px;fill:#000000;" text-anchor="end" transform="translate(0,0) rotate(-90 428.3095238095238 309)" y="309" opacity="1"><tspan>Kleinhüningen</tspan></text><text x="448.45238095238096" style="color:#000000;cursor:default;font-size:11px;fill:#000000;" text-anchor="end" transform="translate(0,0) rotate(-90 448.45238095238096 309)" y="309" opacity="1"><tspan>Riehen</tspan></text><text x="468.59523809523813" style="color:#000000;cursor:default;font-size:11px;fill:#000000;" text-anchor="end" transform="translate(0,0) rotate(-90 468.59523809523813 309)" y="309" opacity="1"><tspan>Bettingen</tspan></text></g><g class="highcharts-axis-labels highcharts-yaxis-labels "><text x="37" style="color:#000000;cursor:default;font-size:11px;fill:#000000;" text-anchor="end" transform="translate(0,0)" y="302" opacity="1"><tspan>-250</tspan></text><text x="37" style="color:#000000;cursor:default;font-size:11px;fill:#000000;" text-anchor="end" transform="translate(0,0)" y="253" opacity="1"><tspan>0</tspan></text><text x="37" style="color:#000000;cursor:default;font-size:11px;fill:#000000;" text-anchor="end" transform="translate(0,0)" y="205" opacity="1"><tspan>250</tspan></text><text x="37" style="color:#000000;cursor:default;font-size:11px;fill:#000000;" text-anchor="end" transform="translate(0,0)" y="156" opacity="1"><tspan>500</tspan></text><text x="37" style="color:#000000;cursor:default;font-size:11px;fill:#000000;" text-anchor="end" transform="translate(0,0)" y="108" opacity="1"><tspan>750</tspan></text><text x="37" style="color:#000000;cursor:default;font-size:11px;fill:#000000;" text-anchor="end" transform="translate(0,0)" y="60" opacity="1"><tspan>1 000</tspan></text></g><text x="10" class="highcharts-credits" text-anchor="start" style="cursor:default;color:#000000;font-size:10px;fill:#000000;" y="400"><tspan>Quelle: Statistisches Amt Basel-Stadt, kantonale Gebäude- und Wohnungsstatistik</tspan></text></svg>

<svg class="highcharts-root" xmlns="http://www.w3.org/2000/svg" width="485" height="415" font-family="arial" font-size="12">
    <defs>
        <clipPath id="a">
            <path fill="none" d="M0 0h423v242H0z"/>
        </clipPath>
    </defs>
    <rect fill="#fbfbfb" class="highcharts-background" width="485" height="415" rx="0" ry="0"/>
    <path fill="none" class="highcharts-plot-background" d="M52 55h423v242H52z"/>
    <g class="highcharts-grid highcharts-xaxis-grid">
        <path fill="none" class="highcharts-grid-line" d="M71.5 55v242m20-242v242m20-242v242m21-242v242m20-242v242m20-242v242m20-242v242m20-242v242m20-242v242m20-242v242m21-242v242m20-242v242m20-242v242m20-242v242m20-242v242m20-242v242m20-242v242m21-242v242m20-242v242m20-242v242m20-242v242M51.5 55v242"/>
    </g>
    <g class="highcharts-grid highcharts-yaxis-grid">
        <path fill="none" stroke="#B9CFD7" stroke-width=".5" class="highcharts-grid-line" d="M52 297.25h423m-423-48h423m-423-49h423m-423-48h423m-423-49h423M52 54.75h423"/>
    </g>
    <path fill="none" class="highcharts-plot-border" d="M52 55h423v242H52z"/>
    <g class="highcharts-axis highcharts-xaxis">
        <path fill="none" class="highcharts-tick" stroke="#FFF" d="M71.5 297v10m20-10v10m20-10v10m21-10v10m20-10v10m20-10v10m20-10v10m20-10v10m20-10v10m20-10v10m21-10v10m20-10v10m20-10v10m20-10v10m20-10v10m20-10v10m20-10v10m21-10v10m20-10v10m20-10v10m21-10v10m-424-10v10"/>
        <path fill="none" class="highcharts-axis-line" stroke="#B9CFD7" stroke-width=".5" d="M52 297.25h423"/>
    </g>
    <g class="highcharts-axis highcharts-yaxis">
        <path fill="none" class="highcharts-axis-line" d="M52 55v242"/>
    </g>
    <g class="highcharts-series-group">
        <g class="highcharts-series highcharts-series-0 highcharts-column-series highcharts-color-undefined" transform="translate(52 55)" clip-path="url(#a)">
            <path fill="#83522E" class="highcharts-point" d="M5 190h10v5H5zm20-21h10v26H25zm21 15h10v11H46zm20-15h10v26H66zm20 3h10v23H86zm20-37h10v60h-10zm20 43h10v17h-10zm20 6h10v11h-10z"/>
            <path fill="#83522E" class="highcharts-point highcharts-negative" d="M166 195h10v5h-10z"/>
            <path fill="#83522E" class="highcharts-point" d="M187 183h10v12h-10zm20-45h10v57h-10zm20 56h10v1h-10zm20-3h10v4h-10zm20-18h10v22h-10zm20-15h10v37h-10zm20-130h10v167h-10zm21 152h10v15h-10zm20 14h10v1h-10zm20-17h10v18h-10zm20-27h10v45h-10zm20 42h10v3h-10z"/>
        </g>
    </g>
    <text x="10" class="highcharts-title" y="21" color="#000" font-size="14" font-weight="700">
        <tspan>Nettowohnungsproduktion</tspan>
    </text>
    <text x="10" class="highcharts-subtitle" y="40" color="#000" font-weight="400">
        <tspan>nach Wohnviertel von 2007 bis 2016</tspan>
    </text>
    <g class="highcharts-axis-labels highcharts-xaxis-labels" text-anchor="end" color="#000" cursor="default" font-size="11">
        <text x="65.738" transform="rotate(-90 65.738 309)" y="309">
            <tspan>Altstadt GB</tspan>
        </text>
        <text x="85.881" transform="rotate(-90 85.881 309)" y="309">
            <tspan>Vorstädte</tspan>
        </text>
        <text x="106.024" transform="rotate(-90 106.024 309)" y="309">
            <tspan>Am Ring</tspan>
        </text>
        <text x="126.167" transform="rotate(-90 126.167 309)" y="309">
            <tspan>Breite</tspan>
        </text>
        <text x="146.31" transform="rotate(-90 146.31 309)" y="309">
            <tspan>St. Alban</tspan>
        </text>
        <text x="166.452" transform="rotate(-90 166.452 309)" y="309">
            <tspan>Gundeldingen</tspan>
        </text>
        <text x="186.595" transform="rotate(-90 186.595 309)" y="309">
            <tspan>Bruderholz</tspan>
        </text>
        <text x="206.738" transform="rotate(-90 206.738 309)" y="309">
            <tspan>Bachletten</tspan>
        </text>
        <text x="226.881" transform="rotate(-90 226.881 309)" y="309">
            <tspan>Gotthelf</tspan>
        </text>
        <text x="247.024" transform="rotate(-90 247.024 309)" y="309">
            <tspan>Iselin</tspan>
        </text>
        <text x="267.167" transform="rotate(-90 267.167 309)" y="309">
            <tspan>St. Johann</tspan>
        </text>
        <text x="287.31" transform="rotate(-90 287.31 309)" y="309">
            <tspan>Altstadt KB</tspan>
        </text>
        <text x="307.452" transform="rotate(-90 307.452 309)" y="309">
            <tspan>Clara</tspan>
        </text>
        <text x="327.595" transform="rotate(-90 327.595 309)" y="309">
            <tspan>Wettstein</tspan>
        </text>
        <text x="347.738" transform="rotate(-90 347.738 309)" y="309">
            <tspan>Hirzbrunnen</tspan>
        </text>
        <text x="367.881" transform="rotate(-90 367.881 309)" y="309">
            <tspan>Rosental</tspan>
        </text>
        <text x="388.024" transform="rotate(-90 388.024 309)" y="309">
            <tspan>Matthäus</tspan>
        </text>
        <text x="408.167" transform="rotate(-90 408.167 309)" y="309">
            <tspan>Klybeck</tspan>
        </text>
        <text x="428.31" transform="rotate(-90 428.31 309)" y="309">
            <tspan>Kleinhüningen</tspan>
        </text>
        <text x="448.452" transform="rotate(-90 448.452 309)" y="309">
            <tspan>Riehen</tspan>
        </text>
        <text x="468.595" transform="rotate(-90 468.595 309)" y="309">
            <tspan>Bettingen</tspan>
        </text>
    </g>
    <g class="highcharts-axis-labels highcharts-yaxis-labels" text-anchor="end" color="#000" cursor="default" font-size="11">
        <text x="37" y="302">
            <tspan>-250</tspan>
        </text>
        <text x="37" y="253">
            <tspan>0</tspan>
        </text>
        <text x="37" y="205">
            <tspan>250</tspan>
        </text>
        <text x="37" y="156">
            <tspan>500</tspan>
        </text>
        <text x="37" y="108">
            <tspan>750</tspan>
        </text>
        <text x="37" y="60">
            <tspan>1 000</tspan>
        </text>
    </g>
    <text x="10" class="highcharts-credits" y="400" cursor="default" color="#000" font-size="10">
        <tspan>Quelle: Statistisches Amt Basel-Stadt, kantonale Gebäude- und Wohnungsstatistik</tspan>
    </text>
</svg>
